myproject/site_static/site/img/logo2.svg

<svg fill="none" height="295" viewBox="0 0 1086 295" width="1086" xmlns="http://www.w3.org/2000/svg"><path d="m0 0h1060.74v295h-1060.74z" fill="#000"/><g fill="#fff"><path d="m297.21 200v-109.0909h65.838v11.7189h-52.628v36.861h49.219v11.718h-49.219v37.074h53.481v11.719zm87.944 0v-81.818h12.571v81.818zm6.392-95.455c-2.45 0-4.563-.834-6.339-2.503-1.74-1.669-2.61-3.6755-2.61-6.0193 0-2.3437.87-4.3501 2.61-6.0192 1.776-1.669 3.889-2.5035 6.339-2.5035s4.546.8345 6.286 2.5035c1.775 1.6691 2.663 3.6755 2.663 6.0192 0 2.3438-.888 4.3503-2.663 6.0193-1.74 1.669-3.836 2.503-6.286 2.503zm41.775 46.236v49.219h-12.571v-81.818h12.145v12.784h1.065c1.918-4.155 4.83-7.493 8.736-10.014 3.906-2.557 8.949-3.836 15.128-3.836 5.539 0 10.387 1.137 14.542 3.41 4.154 2.237 7.386 5.646 9.694 10.227 2.308 4.545 3.463 10.298 3.463 17.258v51.989h-12.571v-51.136c0-6.428-1.67-11.435-5.008-15.022-3.338-3.622-7.919-5.433-13.742-5.433-4.013 0-7.6.87-10.76 2.61-3.125 1.74-5.593 4.279-7.405 7.617-1.811 3.338-2.716 7.387-2.716 12.145zm139.147-32.599-30.256 81.818h-12.784l-30.256-81.818h13.637l22.585 65.199h.852l22.585-65.199zm16.592 81.818v-81.818h12.571v81.818zm6.392-95.455c-2.45 0-4.563-.834-6.338-2.503-1.74-1.669-2.61-3.6755-2.61-6.0193 0-2.3437.87-4.3501 2.61-6.0192 1.775-1.669 3.888-2.5035 6.338-2.5035 2.451 0 4.546.8345 6.286 2.5035 1.775 1.6691 2.663 3.6755 2.663 6.0192 0 2.3438-.888 4.3503-2.663 6.0193-1.74 1.669-3.835 2.503-6.286 2.503zm64.786 13.637v10.653h-42.4v-10.653zm-30.042-19.6025h12.571v77.9825c0 3.552.515 6.215 1.545 7.991 1.065 1.74 2.414 2.911 4.048 3.515 1.669.568 3.427.852 5.273.852 1.385 0 2.522-.071 3.409-.213.888-.177 1.598-.319 2.131-.426l2.557 11.293c-.852.319-2.042.639-3.569.959-1.527.355-3.462.532-5.806.532-3.551 0-7.031-.763-10.44-2.29-3.374-1.527-6.179-3.853-8.417-6.978-2.201-3.125-3.302-7.067-3.302-11.825zm73.029 103.3385c-5.185 0-9.89-.977-14.116-2.93-4.226-1.989-7.581-4.847-10.067-8.576-2.486-3.764-3.729-8.31-3.729-13.636 0-4.688.923-8.488 2.77-11.4 1.847-2.947 4.315-5.255 7.404-6.924 3.09-1.669 6.499-2.912 10.227-3.729 3.765-.852 7.546-1.527 11.346-2.024 4.972-.639 9.002-1.119 12.092-1.438 3.125-.355 5.398-.941 6.818-1.758 1.456-.817 2.184-2.237 2.184-4.262v-.426c0-5.255-1.438-9.339-4.315-12.251-2.841-2.912-7.155-4.368-12.944-4.368-6.001 0-10.706 1.314-14.115 3.942s-5.806 5.433-7.191 8.416l-11.932-4.261c2.13-4.972 4.971-8.843 8.523-11.613 3.586-2.805 7.492-4.758 11.718-5.859 4.262-1.136 8.452-1.705 12.571-1.705 2.628 0 5.647.32 9.056.959 3.444.604 6.765 1.865 9.961 3.782 3.231 1.918 5.912 4.812 8.043 8.683s3.196 9.055 3.196 15.554v53.906h-12.571v-11.08h-.639c-.853 1.776-2.273 3.676-4.262 5.7-1.988 2.024-4.634 3.746-7.936 5.167-3.303 1.42-7.334 2.131-12.092 2.131zm1.918-11.293c4.971 0 9.162-.977 12.571-2.93 3.444-1.953 6.037-4.474 7.777-7.564 1.775-3.089 2.663-6.338 2.663-9.747v-11.506c-.533.639-1.705 1.225-3.516 1.758-1.775.497-3.835.941-6.179 1.331-2.308.355-4.563.675-6.765.959-2.166.249-3.924.462-5.273.639-3.267.426-6.321 1.119-9.162 2.078-2.805.923-5.078 2.326-6.818 4.208-1.705 1.846-2.557 4.368-2.557 7.564 0 4.368 1.616 7.67 4.847 9.907 3.267 2.202 7.404 3.303 12.412 3.303zm94.109-72.443v10.653h-42.4v-10.653zm-30.042-19.6025h12.571v77.9825c0 3.552.514 6.215 1.544 7.991 1.066 1.74 2.415 2.911 4.049 3.515 1.669.568 3.426.852 5.273.852 1.385 0 2.521-.071 3.409-.213.888-.177 1.598-.319 2.131-.426l2.557 11.293c-.853.319-2.042.639-3.569.959-1.527.355-3.463.532-5.806.532-3.552 0-7.032-.763-10.441-2.29-3.373-1.527-6.179-3.853-8.416-6.978-2.202-3.125-3.302-7.067-3.302-11.825zm48.952 101.4205v-81.818h12.571v81.818zm6.392-95.455c-2.45 0-4.563-.834-6.339-2.503-1.74-1.669-2.61-3.6755-2.61-6.0193 0-2.3437.87-4.3501 2.61-6.0192 1.776-1.669 3.889-2.5035 6.339-2.5035s4.545.8345 6.285 2.5035c1.776 1.6691 2.664 3.6755 2.664 6.0192 0 2.3438-.888 4.3503-2.664 6.0193-1.74 1.669-3.835 2.503-6.285 2.503zm62.442 97.16c-7.386 0-13.867-1.758-19.442-5.274-5.54-3.516-9.872-8.434-12.997-14.755-3.09-6.321-4.635-13.707-4.635-22.159 0-8.523 1.545-15.962 4.635-22.319 3.125-6.356 7.457-11.292 12.997-14.808 5.575-3.516 12.056-5.274 19.442-5.274 7.387 0 13.85 1.758 19.389 5.274 5.576 3.516 9.908 8.452 12.998 14.808 3.125 6.357 4.687 13.796 4.687 22.319 0 8.452-1.562 15.838-4.687 22.159-3.09 6.321-7.422 11.239-12.998 14.755-5.539 3.516-12.002 5.274-19.389 5.274zm0-11.293c5.611 0 10.228-1.438 13.85-4.315 3.622-2.876 6.303-6.658 8.043-11.346 1.74-4.687 2.61-9.765 2.61-15.234s-.87-10.565-2.61-15.288-4.421-8.54-8.043-11.452-8.239-4.368-13.85-4.368-10.227 1.456-13.849 4.368-6.303 6.729-8.043 11.452c-1.741 4.723-2.611 9.819-2.611 15.288s.87 10.547 2.611 15.234c1.74 4.688 4.421 8.47 8.043 11.346 3.622 2.877 8.238 4.315 13.849 4.315zm68.835-39.631v49.219h-12.571v-81.818h12.144v12.784h1.066c1.917-4.155 4.829-7.493 8.736-10.014 3.906-2.557 8.948-3.836 15.127-3.836 5.54 0 10.388 1.137 14.542 3.41 4.155 2.237 7.385 5.646 9.695 10.227 2.31 4.545 3.46 10.298 3.46 17.258v51.989h-12.569v-51.136c0-6.428-1.669-11.435-5.007-15.022-3.338-3.622-7.919-5.433-13.743-5.433-4.012 0-7.599.87-10.76 2.61-3.125 1.74-5.593 4.279-7.404 7.617s-2.716 7.387-2.716 12.145z"/><path d="m61.1543 240.573h180.856v23.0014h-180.856z"/><path d="m61.1543 263.574h111.375v21.052h-111.375z" transform="matrix(0 -1 1 0 -202.4197 324.7283)"/><path d="m220.958 263.574h111.375v21.052h-111.375z" transform="matrix(0 -1 1 0 -42.616 484.532)"/><path d="m150.827 198.591-85.5251-80.642 19.3489-19.0011 87.4032 79.3991z"/><path d="m241.97 114.902-87.754 79.797-18.406-18.331 87.365-78.6571z"/><path d="m175.505 51.7194-21.824-19.5412-56.936 56.2928 18.66 16.343z"/><path d="m208.04 83.8002-19.617-18.7642-58.85 53.266 20.281 17.431z"/></g></svg>

<svg width="1086" height="295" viewBox="0 0 1086 295" fill="none" xmlns="http://www.w3.org/2000/svg">
<rect width="1060.74" height="295" fill="black"/>
<path d="M297.21 200V90.9091H363.048V102.628H310.42V139.489H359.639V151.207H310.42V188.281H363.901V200H297.21ZM385.154 200V118.182H397.725V200H385.154ZM391.546 104.545C389.096 104.545 386.983 103.711 385.207 102.042C383.467 100.373 382.597 98.3665 382.597 96.0227C382.597 93.679 383.467 91.6726 385.207 90.0035C386.983 88.3345 389.096 87.5 391.546 87.5C393.996 87.5 396.092 88.3345 397.832 90.0035C399.607 91.6726 400.495 93.679 400.495 96.0227C400.495 98.3665 399.607 100.373 397.832 102.042C396.092 103.711 393.996 104.545 391.546 104.545ZM433.321 150.781V200H420.75V118.182H432.895V130.966H433.96C435.878 126.811 438.79 123.473 442.696 120.952C446.602 118.395 451.645 117.116 457.824 117.116C463.363 117.116 468.211 118.253 472.366 120.526C476.52 122.763 479.752 126.172 482.06 130.753C484.368 135.298 485.523 141.051 485.523 148.011V200H472.952V148.864C472.952 142.436 471.282 137.429 467.944 133.842C464.606 130.22 460.025 128.409 454.202 128.409C450.189 128.409 446.602 129.279 443.442 131.019C440.317 132.759 437.849 135.298 436.037 138.636C434.226 141.974 433.321 146.023 433.321 150.781ZM572.468 118.182L542.212 200H529.428L499.172 118.182H512.809L535.394 183.381H536.246L558.831 118.182H572.468ZM589.06 200V118.182H601.631V200H589.06ZM595.452 104.545C593.002 104.545 590.889 103.711 589.114 102.042C587.374 100.373 586.504 98.3665 586.504 96.0227C586.504 93.679 587.374 91.6726 589.114 90.0035C590.889 88.3345 593.002 87.5 595.452 87.5C597.903 87.5 599.998 88.3345 601.738 90.0035C603.513 91.6726 604.401 93.679 604.401 96.0227C604.401 98.3665 603.513 100.373 601.738 102.042C599.998 103.711 597.903 104.545 595.452 104.545ZM660.238 118.182V128.835H617.838V118.182H660.238ZM630.196 98.5795H642.767V176.562C642.767 180.114 643.282 182.777 644.312 184.553C645.377 186.293 646.726 187.464 648.36 188.068C650.029 188.636 651.787 188.92 653.633 188.92C655.018 188.92 656.155 188.849 657.042 188.707C657.93 188.53 658.64 188.388 659.173 188.281L661.73 199.574C660.878 199.893 659.688 200.213 658.161 200.533C656.634 200.888 654.699 201.065 652.355 201.065C648.804 201.065 645.324 200.302 641.915 198.775C638.541 197.248 635.736 194.922 633.498 191.797C631.297 188.672 630.196 184.73 630.196 179.972V98.5795ZM703.225 201.918C698.04 201.918 693.335 200.941 689.109 198.988C684.883 196.999 681.528 194.141 679.042 190.412C676.556 186.648 675.313 182.102 675.313 176.776C675.313 172.088 676.236 168.288 678.083 165.376C679.93 162.429 682.398 160.121 685.487 158.452C688.577 156.783 691.986 155.54 695.714 154.723C699.479 153.871 703.26 153.196 707.06 152.699C712.032 152.06 716.062 151.58 719.152 151.261C722.277 150.906 724.55 150.32 725.97 149.503C727.426 148.686 728.154 147.266 728.154 145.241V144.815C728.154 139.56 726.716 135.476 723.839 132.564C720.998 129.652 716.684 128.196 710.895 128.196C704.894 128.196 700.189 129.51 696.78 132.138C693.371 134.766 690.974 137.571 689.589 140.554L677.657 136.293C679.787 131.321 682.628 127.45 686.18 124.68C689.766 121.875 693.672 119.922 697.898 118.821C702.16 117.685 706.35 117.116 710.469 117.116C713.097 117.116 716.116 117.436 719.525 118.075C722.969 118.679 726.29 119.94 729.486 121.857C732.717 123.775 735.398 126.669 737.529 130.54C739.66 134.411 740.725 139.595 740.725 146.094V200H728.154V188.92H727.515C726.662 190.696 725.242 192.596 723.253 194.62C721.265 196.644 718.619 198.366 715.317 199.787C712.014 201.207 707.983 201.918 703.225 201.918ZM705.143 190.625C710.114 190.625 714.305 189.648 717.714 187.695C721.158 185.742 723.751 183.221 725.491 180.131C727.266 177.042 728.154 173.793 728.154 170.384V158.878C727.621 159.517 726.449 160.103 724.638 160.636C722.863 161.133 720.803 161.577 718.459 161.967C716.151 162.322 713.896 162.642 711.694 162.926C709.528 163.175 707.77 163.388 706.421 163.565C703.154 163.991 700.1 164.684 697.259 165.643C694.454 166.566 692.181 167.969 690.441 169.851C688.736 171.697 687.884 174.219 687.884 177.415C687.884 181.783 689.5 185.085 692.731 187.322C695.998 189.524 700.135 190.625 705.143 190.625ZM799.252 118.182V128.835H756.852V118.182H799.252ZM769.21 98.5795H781.781V176.562C781.781 180.114 782.295 182.777 783.325 184.553C784.391 186.293 785.74 187.464 787.374 188.068C789.043 188.636 790.8 188.92 792.647 188.92C794.032 188.92 795.168 188.849 796.056 188.707C796.944 188.53 797.654 188.388 798.187 188.281L800.744 199.574C799.891 199.893 798.702 200.213 797.175 200.533C795.648 200.888 793.712 201.065 791.369 201.065C787.817 201.065 784.337 200.302 780.928 198.775C777.555 197.248 774.749 194.922 772.512 191.797C770.31 188.672 769.21 184.73 769.21 179.972V98.5795ZM818.162 200V118.182H830.733V200H818.162ZM824.554 104.545C822.104 104.545 819.991 103.711 818.215 102.042C816.475 100.373 815.605 98.3665 815.605 96.0227C815.605 93.679 816.475 91.6726 818.215 90.0035C819.991 88.3345 822.104 87.5 824.554 87.5C827.004 87.5 829.099 88.3345 830.839 90.0035C832.615 91.6726 833.503 93.679 833.503 96.0227C833.503 98.3665 832.615 100.373 830.839 102.042C829.099 103.711 827.004 104.545 824.554 104.545ZM886.996 201.705C879.61 201.705 873.129 199.947 867.554 196.431C862.014 192.915 857.682 187.997 854.557 181.676C851.467 175.355 849.922 167.969 849.922 159.517C849.922 150.994 851.467 143.555 854.557 137.198C857.682 130.842 862.014 125.906 867.554 122.39C873.129 118.874 879.61 117.116 886.996 117.116C894.383 117.116 900.846 118.874 906.385 122.39C911.961 125.906 916.293 130.842 919.383 137.198C922.508 143.555 924.07 150.994 924.07 159.517C924.07 167.969 922.508 175.355 919.383 181.676C916.293 187.997 911.961 192.915 906.385 196.431C900.846 199.947 894.383 201.705 886.996 201.705ZM886.996 190.412C892.607 190.412 897.224 188.974 900.846 186.097C904.468 183.221 907.149 179.439 908.889 174.751C910.629 170.064 911.499 164.986 911.499 159.517C911.499 154.048 910.629 148.952 908.889 144.229C907.149 139.506 904.468 135.689 900.846 132.777C897.224 129.865 892.607 128.409 886.996 128.409C881.385 128.409 876.769 129.865 873.147 132.777C869.525 135.689 866.844 139.506 865.104 144.229C863.363 148.952 862.493 154.048 862.493 159.517C862.493 164.986 863.363 170.064 865.104 174.751C866.844 179.439 869.525 183.221 873.147 186.097C876.769 188.974 881.385 190.412 886.996 190.412ZM955.831 150.781V200H943.26V118.182H955.404V130.966H956.47C958.387 126.811 961.299 123.473 965.206 120.952C969.112 118.395 974.154 117.116 980.333 117.116C985.873 117.116 990.721 118.253 994.875 120.526C999.03 122.763 1002.26 126.172 1004.57 130.753C1006.88 135.298 1008.03 141.051 1008.03 148.011V200H995.461V148.864C995.461 142.436 993.792 137.429 990.454 133.842C987.116 130.22 982.535 128.409 976.711 128.409C972.699 128.409 969.112 129.279 965.951 131.019C962.826 132.759 960.358 135.298 958.547 138.636C956.736 141.974 955.831 146.023 955.831 150.781Z" fill="white"/>
<rect x="61.1543" y="240.573" width="180.856" height="23.0014" fill="white"/>
<rect x="61.1543" y="263.574" width="111.375" height="21.052" transform="rotate(-90 61.1543 263.574)" fill="white"/>
<rect x="220.958" y="263.574" width="111.375" height="21.052" transform="rotate(-90 220.958 263.574)" fill="white"/>
<path d="M150.827 198.591L65.3019 117.949L84.6508 98.9479L172.054 178.347L150.827 198.591Z" fill="white"/>
<path d="M241.97 114.902L154.216 194.699L135.81 176.368L223.175 97.7109L241.97 114.902Z" fill="white"/>
<path d="M175.505 51.7194L153.681 32.1782L96.745 88.471L115.405 104.814L175.505 51.7194Z" fill="white"/>
<path d="M208.04 83.8002L188.423 65.036L129.573 118.302L149.854 135.733L208.04 83.8002Z" fill="white"/>
</svg>
